public/images/footer/discord.svg

<svg width="32" height="32" viewBox="0 0 32 32" fill="none" xmlns="http://www.w3.org/2000/svg">
<path d="M26.6403 6.89264C24.0928 4.84264 20.0628 4.49515 19.8903 4.48264C19.6228 4.46014 19.3678 4.61014 19.2578 4.85764C19.2478 4.87264 19.1603 5.07514 19.0628 5.39014C20.7478 5.67514 22.8178 6.24764 24.6903 7.41014C24.9903 7.59514 25.0828 7.99014 24.8978 8.29014C24.7753 8.48764 24.5678 8.59514 24.3528 8.59514C24.2378 8.59514 24.1203 8.56264 24.0153 8.49764C20.7953 6.50014 16.7753 6.40014 16.0003 6.40014C15.2253 6.40014 11.2028 6.50014 7.98527 8.49764C7.68527 8.68514 7.29027 8.59264 7.10527 8.29264C6.91777 7.99014 7.01027 7.59764 7.31027 7.41014C9.18277 6.25014 11.2528 5.67514 12.9378 5.39264C12.8403 5.07515 12.7528 4.87515 12.7453 4.85764C12.6328 4.61014 12.3803 4.45514 12.1103 4.48264C11.9378 4.49514 7.90777 4.84264 5.32527 6.92014C3.97777 8.16764 1.28027 15.4576 1.28027 21.7601C1.28027 21.8726 1.31028 21.9801 1.36527 22.0776C3.22527 25.3476 8.30277 26.2026 9.46027 26.2401C9.46527 26.2401 9.47277 26.2401 9.48027 26.2401C9.68527 26.2401 9.87777 26.1426 9.99777 25.9776L11.1678 24.3676C8.01028 23.5526 6.39778 22.1676 6.30527 22.0851C6.04027 21.8526 6.01528 21.4476 6.25027 21.1826C6.48277 20.9176 6.88777 20.8926 7.15277 21.1251C7.19027 21.1601 10.1603 23.6801 16.0003 23.6801C21.8503 23.6801 24.8203 21.1501 24.8503 21.1251C25.1153 20.8951 25.5178 20.9176 25.7528 21.1851C25.9853 21.4501 25.9603 21.8526 25.6953 22.0851C25.6028 22.1676 23.9903 23.5526 20.8328 24.3676L22.0028 25.9776C22.1228 26.1426 22.3153 26.2401 22.5203 26.2401C22.5278 26.2401 22.5353 26.2401 22.5403 26.2401C23.6978 26.2026 28.7753 25.3476 30.6353 22.0776C30.6903 21.9801 30.7203 21.8726 30.7203 21.7601C30.7203 15.4576 28.0228 8.16764 26.6403 6.89264ZM11.8403 19.2001C10.6028 19.2001 9.60027 18.0551 9.60027 16.6401C9.60027 15.2251 10.6028 14.0801 11.8403 14.0801C13.0778 14.0801 14.0803 15.2251 14.0803 16.6401C14.0803 18.0551 13.0778 19.2001 11.8403 19.2001ZM20.1603 19.2001C18.9228 19.2001 17.9203 18.0551 17.9203 16.6401C17.9203 15.2251 18.9228 14.0801 20.1603 14.0801C21.3978 14.0801 22.4003 15.2251 22.4003 16.6401C22.4003 18.0551 21.3978 19.2001 20.1603 19.2001Z" fill="black"/>
</svg>

<svg width="32" height="32" fill="none" xmlns="http://www.w3.org/2000/svg"><path d="M26.64 6.893c-2.547-2.05-6.577-2.398-6.75-2.41a.635.635 0 0 0-.632.375c-.01.015-.098.217-.195.532 1.685.285 3.755.858 5.627 2.02a.64.64 0 1 1-.675 1.088C20.795 6.5 16.775 6.4 16 6.4c-.775 0-4.797.1-8.015 2.098A.64.64 0 0 1 7.31 7.41c1.873-1.16 3.943-1.735 5.628-2.017-.098-.318-.185-.518-.193-.535a.631.631 0 0 0-.635-.375c-.172.012-4.202.36-6.785 2.437C3.978 8.168 1.28 15.458 1.28 21.76c0 .113.03.22.085.318 1.86 3.27 6.938 4.125 8.095 4.162h.02a.64.64 0 0 0 .518-.262l1.17-1.61c-3.158-.815-4.77-2.2-4.863-2.283a.64.64 0 0 1 .848-.96C7.19 21.16 10.16 23.68 16 23.68c5.85 0 8.82-2.53 8.85-2.555a.64.64 0 0 1 .845.96c-.092.083-1.705 1.468-4.862 2.283l1.17 1.61a.64.64 0 0 0 .517.262h.02c1.158-.037 6.235-.892 8.095-4.162a.642.642 0 0 0 .085-.318c0-6.302-2.697-13.592-4.08-14.867zM11.84 19.2c-1.237 0-2.24-1.145-2.24-2.56s1.003-2.56 2.24-2.56c1.238 0 2.24 1.145 2.24 2.56s-1.002 2.56-2.24 2.56zm8.32 0c-1.237 0-2.24-1.145-2.24-2.56s1.003-2.56 2.24-2.56c1.238 0 2.24 1.145 2.24 2.56s-1.002 2.56-2.24 2.56z" fill="#000"/></svg>
